packages/gestalt-icons-android/vr-theme/ic_vr_clips_gestalt.svg

<svg width="24" height="24" viewBox="0 0 24 24" fill="none" xmlns="http://www.w3.org/2000/svg">
<path d="M6.75 14.1315V9.86852C6.75 9.06982 7.64014 8.59343 8.3047 9.03647L11.5019 11.1679C12.0957 11.5638 12.0957 12.4362 11.5019 12.8321L8.3047 14.9635C7.64015 15.4066 6.75 14.9302 6.75 14.1315Z" fill="black"/>
<path fill-rule="evenodd" clip-rule="evenodd" d="M15 21V23H17V21H20C22.2091 21 24 19.2091 24 17V7C24 4.79086 22.2091 3 20 3H17V1H15V3H4C1.79086 3 0 4.79086 0 7V17C0 19.2091 1.79086 21 4 21H15ZM17 19H20C21.1046 19 22 18.1046 22 17V7C22 5.89543 21.1046 5 20 5H17V19ZM15 5V19H4C2.89543 19 2 18.1046 2 17V7C2 5.89543 2.89543 5 4 5H15Z" fill="black"/>
</svg>

<svg xmlns="http://www.w3.org/2000/svg" width="24" height="24"><path d="m8.3 14.96 3.2-2.13a1 1 0 0 0 0-1.66L8.3 9.04a1 1 0 0 0-1.55.83v4.26a1 1 0 0 0 1.55.83M15 21v2h2v-2h3a4 4 0 0 0 4-4V7a4 4 0 0 0-4-4h-3V1h-2v2H4a4 4 0 0 0-4 4v10a4 4 0 0 0 4 4zm2-16h3a2 2 0 0 1 2 2v10a2 2 0 0 1-2 2h-3zm-2 0v14H4a2 2 0 0 1-2-2V7c0-1.1.9-2 2-2z"/></svg>
